modules/themify-icons/icons/wand.svg

<?xml version="1.0" encoding="utf-8"?>
<!-- Generated by IcoMoon.io -->
<!DOCTYPE svg PUBLIC "-//W3C//DTD SVG 1.1//EN" "http://www.w3.org/Graphics/SVG/1.1/DTD/svg11.dtd">
<svg version="1.1" xmlns="http://www.w3.org/2000/svg" xmlns:xlink="http://www.w3.org/1999/xlink" width="17" height="17" viewBox="0 0 17 17">
<g>
</g>
	<path d="M17 5h-3.293l2.328 2.328-0.707 0.707-2.328-2.328v3.293h-1v-3.286l-10.646 10.665-0.707-0.707 10.653-10.672h-3.3v-1h3.293l-2.328-2.328 0.707-0.707 2.328 2.328v-3.293h1v3.297l2.287-2.291 0.707 0.707-2.283 2.287h3.289v1z" fill="#000000" />
</svg>

<svg xmlns="http://www.w3.org/2000/svg" width="17" height="17" viewBox="0 0 17 17"><path d="M17 5h-3.293l2.328 2.328-.707.707L13 5.707V9h-1V5.714L1.354 16.379l-.707-.707L11.3 5H8V4h3.293L8.965 1.672l.707-.707L12 3.293V0h1v3.297l2.287-2.291.707.707L13.711 4H17v1z"/></svg>
